!!!!SEGMENT: pl-sa--46-a-i-46--002_anonim--pastorales-cicho-wszyscy.krn
!!!cenid: 17xx:1359
!!!COM: Anonim
!!!COM-rismID:
!!!CDT:
!!!CNT:
!!!GTL: Pastorales
!!!OTL: Cicho wszyscy
!!!PDT:
!!!AGN:
!!!SMS-siglum: PL-SA
!!!SMS-shelfmark: 46/A I 46
!!!SMS-shelfwork: 002 G
!!!SMS-variant:
!!!SMS-altvar:
!!!NIFC-rismSourceID: 1001069556
!!!NIFC-islandoraID:
!!!URL-pdf-islandora:
!!!URL-scan: https://bc.bdsandomierz.pl/dlibra/publication/1292/edition/1260/content @EN{Scan on Cyfrowa Biblioteka Diecezjalna w Sandomierzu} @PL{Skany w portalu Cyfrowa Biblioteka Diecezjalna w Sandomierzu}
!!!ONB-nifc: UWAGA: części Pastorales: 1. Gwałtu, bracia, 2. Cicho wszyscy, 3. Pódźcie za mną
!!!AIN: 1 alto 1 empty 1 organ 1 violn
!!!key:
**kern	**fba	**kern	**dynam	**kern	**text	**kern	**text	**text
*part4	*part4	*part3	*part3	*part2	*part2	*part1	*part1	*part1
*staff4	*	*staff3	*	*staff2	*staff2	*staff1	*staff1	*staff1
*Iorgan	*	*Ivioln	*	*Iempty	*	*Ialto	*	*
*I"Organo.	*	*I"Violino Primo	*	*I"Baſso.	*	*I"Alto.	*	*
*I'org	*	*I'vl I	*	*I'B	*	*I'A	*	*
*clefF4	*	*clefG2	*	*clefF4	*	*clefC3	*	*
*k[f#c#]	*	*k[f#c#]	*	*k[f#c#]	*	*k[f#c#]	*	*
*D:	*	*D:	*	*D:	*	*D:	*	*
*M3/8	*	*M3/8	*	*M3/8	*	*M3/8	*	*
=1	=1	=1	=1	=1	=1	=1	=1	=1
!!LO:TX:t=P:problem:all\right, middle or left:global
!!LO:TX:a:Bi:t=Moderato.
!LO:TX:t=P:problem=kolejność znaków C# F#	!	!	!	!LO:TX:t=P:problem=kolejność znaków C# F#	!	!LO:TX:t=P:problem=kolejność znaków c# f#	!	!
!	!	!LO:TX:t=P:problem=kolejność znaków cc# ff#	!	!	!	!	!	!
4D\	.	4ddd\	.	1.r	.	1.r	.	.
8D\	.	8aa\	.	.	.	.	.	.
=2	=2	=2	=2	=2	=2	=2	=2	=2
8D\	.	16ff#\LL	.	.	.	.	.	.
.	.	16cc#\JJ	.	.	.	.	.	.
4D\	.	4dd\	.	.	.	.	.	.
=3	=3	=3	=3	=3	=3	=3	=3	=3
4AA/	.	4gg\	.	.	.	.	.	.
8AA/	.	8gg\	.	.	.	.	.	.
=4	=4	=4	=4	=4	=4	=4	=4	=4
8D\L	.	16gg\LL	.	.	.	.	.	.
.	.	16ff#\JJ	.	.	.	.	.	.
8D\J	.	8ff#\	.	.	.	.	.	.
8r	.	8r	.	.	.	.	.	.
=5	=5	=5	=5	=5	=5	=5	=5	=5
4D\	.	4ddd\	.	1.r	.	1.r	.	.
8D\	.	8aa\	.	.	.	.	.	.
=6	=6	=6	=6	=6	=6	=6	=6	=6
8D\	.	16ff#\LL	.	.	.	.	.	.
.	.	16cc#\JJ	.	.	.	.	.	.
4D\	.	4dd\	.	.	.	.	.	.
=7	=7	=7	=7	=7	=7	=7	=7	=7
4AA/	.	4gg\	.	.	.	.	.	.
8AA/	.	8gg\	.	.	.	.	.	.
=8	=8	=8	=8	=8	=8	=8	=8	=8
8D\	.	16ff#\LL	.	.	.	.	.	.
.	.	16cc#\JJ	.	.	.	.	.	.
4D\	.	4dd\	.	.	.	.	.	.
=9	=9	=9	=9	=9	=9	=9	=9	=9
8AA/L	.	4gg\	.	1.r	.	1.r	.	.
8AA/	.	.	.	.	.	.	.	.
8AA/J	.	8gg\	.	.	.	.	.	.
=10	=10	=10	=10	=10	=10	=10	=10	=10
8D\	.	16ff#\LL	.	.	.	.	.	.
.	.	16cc#\JJ	.	.	.	.	.	.
4D\	.	4dd\	.	.	.	.	.	.
=11	=11	=11	=11	=11	=11	=11	=11	=11
4.D\	.	16ff#\LL	.	.	.	.	.	.
.	.	16aa\	.	.	.	.	.	.
.	.	16gg#X\	.	.	.	.	.	.
.	.	16bb\J	.	.	.	.	.	.
.	.	8aa\J	.	.	.	.	.	.
=12	=12	=12	=12	=12	=12	=12	=12	=12
4.D\	.	16ff#\LL	.	.	.	.	.	.
.	.	16aa\	.	.	.	.	.	.
.	.	16gg#X\	.	.	.	.	.	.
.	.	16bb\J	.	.	.	.	.	.
.	.	8aa\J	.	.	.	.	.	.
=13	=13	=13	=13	=13	=13	=13	=13	=13
8AA/L	.	4gg\	.	1.r	.	1.r	.	.
8AA/	.	.	.	.	.	.	.	.
8AA/J	.	8gg\	.	.	.	.	.	.
=14	=14	=14	=14	=14	=14	=14	=14	=14
8D\L	.	16ff#\LL	.	.	.	.	.	.
.	.	16cc#\JJ	.	.	.	.	.	.
8D\J	.	8dd\	.	.	.	.	.	.
8r	.	8r	.	.	.	.	.	.
=15	=15	=15	=15	=15	=15	=15	=15	=15
!	!	!	!LO:DY:a	!	!	!	!	!
4.D\	.	16ff#\LL	p	.	.	.	.	.
.	.	16aa\	.	.	.	.	.	.
.	.	16gg#X\	.	.	.	.	.	.
.	.	16bb\J	.	.	.	.	.	.
.	.	8aa\J	.	.	.	.	.	.
=16	=16	=16	=16	=16	=16	=16	=16	=16
4.D\	.	16ff#\LL	.	.	.	.	.	.
.	.	16aa\	.	.	.	.	.	.
.	.	16gg#X\	.	.	.	.	.	.
.	.	16bb\J	.	.	.	.	.	.
.	.	8aa\J	.	.	.	.	.	.
=17	=17	=17	=17	=17	=17	=17	=17	=17
8AA/L	.	4gg\	.	1.r	.	1.r	.	.
8AA/	.	.	.	.	.	.	.	.
8AA/J	.	8gg\	.	.	.	.	.	.
=18	=18	=18	=18	=18	=18	=18	=18	=18
8D\L	.	16ff#\LL	.	.	.	.	.	.
.	.	16cc#\JJ	.	.	.	.	.	.
8D\J	.	8dd\	.	.	.	.	.	.
8r	.	8r	.	.	.	.	.	.
=19	=19	=19	=19	=19	=19	=19	=19	=19
8D\L	.	8dddL 8a 8d/	.	.	.	.	.	.
8D\	.	8ddd 8a 8d/	.	.	.	.	.	.
8D\J	.	8dddJ 8a 8d/	.	.	.	.	.	.
=20	=20	=20	=20	=20	=20	=20	=20	=20
8D\	.	8ddd 8a 8d/	.	.	.	.	.	.
8r	.	8r	.	.	.	.	.	.
8r	.	8r	.	.	.	.	.	.
=21	=21	=21	=21	=21	=21	=21	=21	=21
!	!	!	!LO:DY:a	!	!	!	!	!
8D\L	.	4ddd\	p	4d\	Ci-	4dd\	Ci-	.
8D\	.	.	.	.	.	.	.	.
8D\J	.	8aa\	.	8A\	-cho	8a\	-cho	.
=22	=22	=22	=22	=22	=22	=22	=22	=22
8D\	.	16ff#\LL	.	8F#\	wſzy-	8f#\	wszy-	.
.	.	16cc#\JJ	.	.	.	.	.	.
4D\	.	4dd\	.	4D\	-scy	4d\	-scy	.
=23	=23	=23	=23	=23	=23	=23	=23	=23
8AA/L	.	4gg\	.	4E\	nie	4e\	nie	.
8AA/	.	.	.	.	.	.	.	.
8AA/J	.	8gg\	.	8E\	du-	8e\	du-	.
=24	=24	=24	=24	=24	=24	=24	=24	=24
8D\L	.	(16gg\LL	.	8E\	-day-	8e\	-day-	.
.	.	16ff#\JJ)	.	.	.	.	.	.
8D\J	.	8ff#\	.	4D\	-cie	4d\	-cie	.
8r	.	8r	.	.	.	.	.	.
=25	=25	=25	=25	=25	=25	=25	=25	=25
4D\	.	4ddd\	.	4d\	Pa-	4dd\	Pa-	.
8D\	.	8aa\	.	8A\	-na	8a\	-na	.
!	!	!	!	!	!	!LO:LB:g=original	!	!
=26	=26	=26	=26	=26	=26	=26	=26	=26
8D\	.	16ff#\LL	.	8F#\	pier-	8f#\	pier-	.
.	.	16cc#\JJ	.	.	.	.	.	.
4D\	.	4dd\	.	4D\	-wey	4d\	-wey	.
=27	=27	=27	=27	=27	=27	=27	=27	=27
4AA/	.	4gg\	.	4G\	przy-	4e\	przy-	.
8AA/	.	8gg\	.	8G\	-wi-	8e\	-wi-	.
=28	=28	=28	=28	=28	=28	=28	=28	=28
4.D\	.	16gg\LL	.	16F#\LL	-tay-	16d\LL	-tay-	.
.	.	16cc#\JJ	.	16E\JJ	.	16c#\JJ	.	.
.	.	4dd\	.	4F#\	-cie	4d\	-cie	.
=29	=29	=29	=29	=29	=29	=29	=29	=29
8AA/L	.	4gg\	.	4G\	przy-	4e\	przy-	.
8AA/	.	.	.	.	.	.	.	.
8AA/J	.	8gg\	.	8G\	-wi-	8e\	-wi-	.
=30	=30	=30	=30	=30	=30	=30	=30	=30
8D\	.	16ff#\LL	.	16F#\LL	-tay-	16d\LL	-tay-	.
.	.	16cc#\JJ	.	16E\JJ	.	16c#\JJ	.	.
4D\	.	4dd\	.	4D\	-cie	8d\	-cie	.
.	.	.	.	.	.	8r	.	.
=31	=31	=31	=31	=31	=31	=31	=31	=31
8AA/	.	4a/	.	4AA/	a	2.r	.	.
8r	.	.	.	.	.	.	.	.
8r	.	8dd\	.	8D/	co	.	.	.
=32	=32	=32	=32	=32	=32	=32	=32	=32
8AA/	.	4cc#\	.	4C#/	ma-	.	.	.
8r	.	.	.	.	.	.	.	.
8r	.	8ee\	.	8E\	-cie	.	.	.
=33	=33	=33	=33	=33	=33	=33	=33	=33
8AA/L	.	4gg\	.	4G\	to	4e\	to	.
8AA/	.	.	.	.	.	.	.	.
8AA/J	.	8gg\	.	8G\	od-	8e\	od-	.
=34	=34	=34	=34	=34	=34	=34	=34	=34
8D\L	.	16ff#\LL	.	16F#\LL	-day-	16d\LL	-day-	.
.	.	16cc#\JJ	.	16C#\JJ	.	16c#\JJ	.	.
8D\J	.	8dd\	.	4D\	-cie	8d\	-cie	.
8r	.	8r	.	.	.	8r	.	.
!	!	!	!	!	!	!LO:LB:g=original	!	!
=35	=35	=35	=35	=35	=35	=35	=35	=35
8AA/	.	1.r	.	4AA/	a	2.r	.	.
8r	.	.	.	.	.	.	.	.
8r	.	.	.	8D\	co	.	.	.
=36	=36	=36	=36	=36	=36	=36	=36	=36
8AA/	.	.	.	4C#/	ma-	.	.	.
8r	.	.	.	.	.	.	.	.
8r	.	.	.	8E\	-cie	.	.	.
=37	=37	=37	=37	=37	=37	=37	=37	=37
8AA/L	.	.	.	4G\	to	4e\	to	.
8AA/	.	.	.	.	.	.	.	.
8AA/J	.	.	.	8G\	od-	8e\	od-	.
=38	=38	=38	=38	=38	=38	=38	=38	=38
8D\L	.	.	.	16F#\LL	-day-	16d\LL	-day-	.
.	.	.	.	16D\JJ	.	16c#\JJ	.	.
8D\J	.	.	.	4D\	-cie	8d\	-cie	.
8r	.	.	.	.	.	8r	.	.
=39	=39	=39	=39	=39	=39	=39	=39	=39
4.D\	.	16ff#\LL	.	2.r	.	2.r	.	.
.	.	16aa\	.	.	.	.	.	.
.	.	16gg#X\	.	.	.	.	.	.
.	.	16bb\J	.	.	.	.	.	.
.	.	8aa\J	.	.	.	.	.	.
=40	=40	=40	=40	=40	=40	=40	=40	=40
4.D\	.	16ff#\LL	.	.	.	.	.	.
.	.	16aa\	.	.	.	.	.	.
.	.	16gg#X\	.	.	.	.	.	.
.	.	16bb\J	.	.	.	.	.	.
.	.	8aa\J	.	.	.	.	.	.
=41	=41	=41	=41	=41	=41	=41	=41	=41
4AA/	.	4a/	.	4G\	to	4e\	to	.
8AA/	.	8gg\	.	8G\	od-	8e\	od-	.
=42	=42	=42	=42	=42	=42	=42	=42	=42
8D\L	.	16ff#\LL	.	16F#\LL	-day-	8d\	-day-	.
.	.	16cc#\JJ	.	16D\JJ	.	.	.	.
8D\J	.	8dd\	.	4D\	-cie	8d\	-cie	.
8r	.	8r	.	.	.	8r	.	.
=43	=43	=43	=43	=43	=43	=43	=43	=43
!	!	!	!LO:DY:a	!	!	!	!	!
4.D\	.	16ff#\LL	p	2.r	.	2.r	.	.
.	.	16aa\	.	.	.	.	.	.
.	.	16gg#X\	.	.	.	.	.	.
.	.	16bb\J	.	.	.	.	.	.
.	.	8aa\J	.	.	.	.	.	.
=44	=44	=44	=44	=44	=44	=44	=44	=44
4.D\	.	16ff#\LL	.	.	.	.	.	.
.	.	16aa\	.	.	.	.	.	.
.	.	16gg#X\	.	.	.	.	.	.
.	.	16bb\J	.	.	.	.	.	.
.	.	8aa\J	.	.	.	.	.	.
=45	=45	=45	=45	=45	=45	=45	=45	=45
8AA/L	.	4a/	.	4G\	to	4e\	to	.
8AA/	.	.	.	.	.	.	.	.
8AA/J	.	8gg\	.	8G\	od-	8e\	od-	.
!	!	!	!	!	!	!LO:LB:g=original	!	!
=46	=46	=46	=46	=46	=46	=46	=46	=46
8D\L	.	16ff#\LL	.	16F#\LL	-day-	8d\	-day-	.
.	.	16cc#\JJ	.	16D\JJ	.	.	.	.
8D\J	.	8dd\	.	4D\	-cie	8d\	-cie	.
8r	.	8r	.	.	.	8r	.	.
=47	=47	=47	=47	=47	=47	=47	=47	=47
4.AA/	.	4aa\	.	1.r	.	1.r	.	.
.	.	8ee\	.	.	.	.	.	.
=48	=48	=48	=48	=48	=48	=48	=48	=48
4.AA/	.	16cc#\LL	.	.	.	.	.	.
.	.	16g#X\JJ	.	.	.	.	.	.
.	.	4a/	.	.	.	.	.	.
=49	=49	=49	=49	=49	=49	=49	=49	=49
8E\L	.	4dd\	.	.	.	.	.	.
8E\	.	.	.	.	.	.	.	.
8E\J	.	8dd\	.	.	.	.	.	.
=50	=50	=50	=50	=50	=50	=50	=50	=50
4.AA/	.	(16dd\LL	.	.	.	.	.	.
.	.	16cc#\JJ)	.	.	.	.	.	.
.	.	4cc#\	.	.	.	.	.	.
=51	=51	=51	=51	=51	=51	=51	=51	=51
4.AA/	.	4aa\	.	1.r	.	1.r	.	.
.	.	8ee\	.	.	.	.	.	.
=52	=52	=52	=52	=52	=52	=52	=52	=52
4.AA/	.	16cc#\LL	.	.	.	.	.	.
.	.	16g#X\JJ	.	.	.	.	.	.
.	.	4a/	.	.	.	.	.	.
=53	=53	=53	=53	=53	=53	=53	=53	=53
8E\L	.	4dd\	.	.	.	.	.	.
8E\	.	.	.	.	.	.	.	.
8E\J	.	8dd\	.	.	.	.	.	.
=54	=54	=54	=54	=54	=54	=54	=54	=54
8AA/L	.	16cc#\LL	.	.	.	.	.	.
.	.	16g#X\JJ	.	.	.	.	.	.
8AA/J	.	8a/	.	.	.	.	.	.
8r	.	8r	.	.	.	.	.	.
=55	=55	=55	=55	=55	=55	=55	=55	=55
4.AA/	.	8aa\L	.	1.r	.	1.r	.	.
.	.	16aa\L	.	.	.	.	.	.
.	.	16gg#X\J	.	.	.	.	.	.
.	.	8aa\J	.	.	.	.	.	.
=56	=56	=56	=56	=56	=56	=56	=56	=56
4.AA/	.	8aa\L	.	.	.	.	.	.
.	.	16aa\L	.	.	.	.	.	.
.	.	16gg#X\J	.	.	.	.	.	.
.	.	8aa\J	.	.	.	.	.	.
=57	=57	=57	=57	=57	=57	=57	=57	=57
4.AA/	.	8ccc#\L	.	.	.	.	.	.
.	.	16ccc#\L	.	.	.	.	.	.
.	.	16bb\J	.	.	.	.	.	.
.	.	8ccc#\J	.	.	.	.	.	.
=58	=58	=58	=58	=58	=58	=58	=58	=58
4.A\	.	8ccc#\L	.	.	.	.	.	.
.	.	16ccc#\L	.	.	.	.	.	.
.	.	16bb\J	.	.	.	.	.	.
.	.	8ccc#\J	.	.	.	.	.	.
=59	=59	=59	=59	=59	=59	=59	=59	=59
4.A\	.	8aa\L	.	1.r	.	1.r	.	.
.	.	16aa\L	.	.	.	.	.	.
.	.	16gg#X\J	.	.	.	.	.	.
.	.	8aa\J	.	.	.	.	.	.
=60	=60	=60	=60	=60	=60	=60	=60	=60
4.A\	.	8aa\L	.	.	.	.	.	.
.	.	16aa\L	.	.	.	.	.	.
.	.	16gg#X\J	.	.	.	.	.	.
.	.	8aa\J	.	.	.	.	.	.
=61	=61	=61	=61	=61	=61	=61	=61	=61
8AA/L	.	8aa\L	.	.	.	.	.	.
16C#/L	.	16cc#\L	.	.	.	.	.	.
16D/J	.	16dd\J	.	.	.	.	.	.
8E/J	.	8ee\J	.	.	.	.	.	.
=62	=62	=62	=62	=62	=62	=62	=62	=62
8AA/	.	8a/L	.	.	.	.	.	.
8r	.	8A/J	.	.	.	.	.	.
8r	.	8r	.	.	.	.	.	.
=63	=63	=63	=63	=63	=63	=63	=63	=63
!	!	!	!LO:DY:a	!	!	!	!	!
4.AA/	.	4aa\	p	4A\	ey	2.r	.	.
.	.	8ee\	.	8E\	pię-	.	.	.
=64	=64	=64	=64	=64	=64	=64	=64	=64
4.AA/	.	8cc#\	.	8C#/	-Kneſz	.	.	.
.	.	4a/	.	4AA/	to	.	.	.
=65	=65	=65	=65	=65	=65	=65	=65	=65
8E\L	.	4dd\	.	4D\	Dzie-	4b\	Dzie-	.
8E\	.	.	.	.	.	.	.	.
8E\J	.	8dd\	.	8D\	-cią-	8b\	-cią-	.
=66	=66	=66	=66	=66	=66	=66	=66	=66
8AA/	.	8dd\	.	8D\	-tecz-	8b\	-tecz-	.
4AA/	.	4cc#\	.	4C#/	-Ko	8a\	-Ko	.
.	.	.	.	.	.	8r	.	.
=67	=67	=67	=67	=67	=67	=67	=67	=67
4.AA/	.	4aa\	.	4A\	mu-	1.r	.	.
.	.	8ee\	.	8E\	-si	.	.	.
=68	=68	=68	=68	=68	=68	=68	=68	=68
4.AA/	.	8cc#\	.	8C#/	to	.	.	.
.	.	4a/	.	4AA/	by[[ć]]	.	.	.
=69	=69	=69	=69	=69	=69	=69	=69	=69
!	!	!LO:N:vis=4.	!	!	!	!	!	!
8E\L	.	4b\	.	4BB/	Pa-	.	.	.
8E\	.	.	.	.	.	.	.	.
8E\J	.	(>16cc#\LL	.	16C#/LL	-nią-	.	.	.
.	.	16dd\JJ)	.	16D/JJ	.	.	.	.
=70	=70	=70	=70	=70	=70	=70	=70	=70
4AA/	.	8cc#\	.	8C#/	-tecz-	.	.	.
.	.	4a/	.	4AA/	-Ko	.	.	.
8AA/	.	.	.	.	.	.	.	.
=71	=71	=71	=71	=71	=71	=71	=71	=71
8E\L	.	4b\	.	4BB/	Pa-	1.r	.	.
8E\	.	.	.	.	.	.	.	.
8E\J	.	(>16cc#\LL	.	16C#/LL	-nią-	.	.	.
.	.	16dd\JJ)	.	16D/JJ	.	.	.	.
=72	=72	=72	=72	=72	=72	=72	=72	=72
8AA/	.	8cc#\	.	8C#/	-tecz-	.	.	.
4AA/	.	4a/	.	4AA/	-Ko	.	.	.
=73	=73	=73	=73	=73	=73	=73	=73	=73
!	!	!	!LO:DY:a	!	!	!	!	!
4.AA/	.	4aa\	p	4A\	a-	.	.	.
.	.	8ee\	.	8E\	-le	.	.	.
=74	=74	=74	=74	=74	=74	=74	=74	=74
4.AA/	.	8cc#\	.	8C#/	w_zim-	.	.	.
.	.	4a/	.	4AA/	-nie	.	.	.
=75	=75	=75	=75	=75	=75	=75	=75	=75
4.E\	.	4dd\	.	8D/	od-	4b\	od-	.
.	.	.	.	4D/	-po-	.	.	.
.	.	8dd\	.	.	.	8b\	-po-	.
=76	=76	=76	=76	=76	=76	=76	=76	=76
8A\L	.	8dd\L	.	8D\	-czy-	8b\	-czy-	.
8A\J	.	8cc#\J	.	4C#/	-wa	8a\	-wa	.
8r	.	8r	.	.	.	8r	.	.
!	!	!	!	!	!	!LO:LB:g=original	!	!
=77	=77	=77	=77	=77	=77	=77	=77	=77
4.A\	.	4cc#\	.	4E\	o-	4cc#\	o-	.
.	.	8a/	.	8C#/	-sieł	8a\	-sieł	.
=78	=78	=78	=78	=78	=78	=78	=78	=78
4D\	.	8b\	.	4D\	go	4b\	go	.
.	.	4b\	.	.	.	.	.	.
8D\	.	.	.	8D\	z wo-	8b\	z wo-	.
=79	=79	=79	=79	=79	=79	=79	=79	=79
4D\	.	4b\	.	4D\	-łem	4b\	-łem	.
8C#\	.	8b\	.	8D\	za-	8b\	za-	.
=80	=80	=80	=80	=80	=80	=80	=80	=80
8D\	.	8b\	.	8D\	-grze-	8b\	-grze-	.
8C#\	.	4a/	.	4C#/	-wa	4a\	-wa	.
8r	.	.	.	.	.	.	.	.
=81	=81	=81	=81	=81	=81	=81	=81	=81
4D\	.	4b/	.	4D/	a-	4b\	od-	.
8D\	.	8b/	.	8D/	-le	8b\	-po-	.
=82	=82	=82	=82	=82	=82	=82	=82	=82
8D\L	.	8b/	.	8D/	w zi-	8b\	-czy-	.
8C#\J	.	4a/	.	4C#/	-mnie	4a\	-wa	.
8r	.	.	.	.	.	.	.	.
=83	=83	=83	=83	=83	=83	=83	=83	=83
8E\	.	4e/	.	4E\	od-	4.r	.	.
8r	.	.	.	.	.	.	.	.
8r	.	8a/	.	8A\	-po-	.	.	.
=84	=84	=84	=84	=84	=84	=84	=84	=84
8E\	.	4b\	.	4G#X\	-czy-	4b\	-w zim-	.
8r	.	.	.	.	.	.	.	.
8r	.	8cc#\	.	8A\	-wa	8cc#\	-nie	.
!	!	!	!	!	!	!LO:LB:g=original	!	!
=85	=85	=85	=85	=85	=85	=85	=85	=85
8E\L	.	4dd\	.	4B\	od-	4dd\	od-	.
8E\	.	.	.	.	.	.	.	.
8E\J	.	8dd\	.	8B\	-po-	8dd\	-po-	.
=86	=86	=86	=86	=86	=86	=86	=86	=86
!LO:TX:t=P:problem=mixed beam	!	!	!	!	!	!	!	!
8A\L	.	8dd\L	.	8B\	-czy-	8dd\	-czy-	.
8AA/J	.	8cc#\J	.	8A\	-wa	8cc#\	-wa	.
8r	.	8r	.	8r	.	8r	.	.
=87	=87	=87	=87	=87	=87	=87	=87	=87
8E\L	.	4dd\	.	4B\	od-	4dd\	od-	.
8E\	.	.	.	.	.	.	.	.
8E\J	.	8dd\	.	8B\	-po-	8dd\	-po-	.
=88	=88	=88	=88	=88	=88	=88	=88	=88
!LO:TX:t=P:problem=mixed beam	!	!	!	!	!	!	!	!
8A\L	.	8dd\L	.	8B\	-czy-	8dd\	-czy-	.
8AA/J	.	8cc#\J	.	8A\	-wa	8cc#\	-wa	.
8r	.	8r	.	8r	.	8r	.	.
=89	=89	=89	=89	=89	=89	=89	=89	=89
4.D\	.	8ddd\L	.	1.r	.	1.r	.	.
.	.	16ccc#\L	.	.	.	.	.	.
.	.	16eee\J	.	.	.	.	.	.
.	.	8ddd\J	.	.	.	.	.	.
=90	=90	=90	=90	=90	=90	=90	=90	=90
4.D\	.	8ff#\L	.	.	.	.	.	.
.	.	16ee\L	.	.	.	.	.	.
.	.	16gg\J	.	.	.	.	.	.
.	.	8ff#\J	.	.	.	.	.	.
=91	=91	=91	=91	=91	=91	=91	=91	=91
4.D\	.	8dd\L	.	.	.	.	.	.
.	.	16cc#\L	.	.	.	.	.	.
.	.	16ee\J	.	.	.	.	.	.
.	.	8dd\J	.	.	.	.	.	.
=92	=92	=92	=92	=92	=92	=92	=92	=92
4.D\	.	8f#/L	.	.	.	.	.	.
.	.	16e/L	.	.	.	.	.	.
.	.	16g/J	.	.	.	.	.	.
.	.	8f#/J	.	.	.	.	.	.
=93	=93	=93	=93	=93	=93	=93	=93	=93
8D\L	.	8dddL 8a 8d/	.	2.r	.	2.r	.	.
8D\	.	8ddd 8a 8d/	.	.	.	.	.	.
8D\J	.	8dddJ 8a 8d/	.	.	.	.	.	.
=94	=94	=94	=94	=94	=94	=94	=94	=94
8D\	.	8ddd 8a 8d/	.	.	.	.	.	.
8r	.	8r	.	.	.	.	.	.
8r	.	8r	.	.	.	.	.	.
=95	=95	=95	=95	=95	=95	=95	=95	=95
4.D\	.	1.r	.	4d\	wa	4dd\	wa	.
.	.	.	.	8A\	przy-	8a\	przy-	.
=96	=96	=96	=96	=96	=96	=96	=96	=96
4.D\	.	.	.	8F#\	-dzie-	8f#\	-dzie-	.
.	.	.	.	4D\	-wa	4d\	-wa	.
!	!	!	!	!	!	!LO:LB:g=original	!	!
=97	=97	=97	=97	=97	=97	=97	=97	=97
4AA/	.	.	.	4G\	do	4ee\	do	.
8AA/	.	.	.	8G\	cha-	8ee\	cha-	.
=98	=98	=98	=98	=98	=98	=98	=98	=98
4D\	.	.	.	8G\	-łu-	8ee\	-łu-	.
.	.	.	.	8F#\	-py	8dd\	-py	.
8D\	.	.	.	8r	.	8r	.	.
=99	=99	=99	=99	=99	=99	=99	=99	=99
4AA/	.	4ee\	.	2.r	.	2.r	.	.
8AA/	.	8ee\	.	.	.	.	.	.
=100	=100	=100	=100	=100	=100	=100	=100	=100
8D\L	.	8ee\L	.	.	.	.	.	.
8D\J	.	8dd\J	.	.	.	.	.	.
8r	.	8r	.	.	.	.	.	.
=101	=101	=101	=101	=101	=101	=101	=101	=101
4.D\	.	1.r	.	4d\	wy	4dd\	wy	[[a
.	.	.	.	8A\	sie	8a\	sie	ia
=102	=102	=102	=102	=102	=102	=102	=102	=102
4.D\	.	.	.	8F#\	nie	8f#\	nie	we-
.	.	.	.	4D\	roz-	4d\	roz-	-zmę
=103	=103	=103	=103	=103	=103	=103	=103	=103
8AA/L	.	.	.	4G\	-chodz-	4ee\	-chodz-	brze-
8AA/J	.	.	.	.	.	.	.	.
8AA/	.	.	.	8G\	-cie	8ee\	-cie	-zia-
=104	=104	=104	=104	=104	=104	=104	=104	=104
8D\L	.	.	.	8G\	z_Ku-	8ee\	z_ku-	-ste-
8D\J	.	.	.	4F#\	-py	8dd\	-py	-go]]
8r	.	.	.	.	.	8r	.	.
!	!	!	!	!	!	!LO:LB:g=original	!	!
=105	=105	=105	=105	=105	=105	=105	=105	=105
4.D\	.	4ddd\	.	4d\	wy	4dd\	wÿ	.
.	.	8aa\	.	8A\	sie	8a\	sie	.
=106	=106	=106	=106	=106	=106	=106	=106	=106
4.D\	.	8ff#\	.	8F#\	nie	8f#\	nie	.
.	.	4dd\	.	4D\	roz-	4d\	roz-	.
=107	=107	=107	=107	=107	=107	=107	=107	=107
4AA/	.	4gg\	.	4G\	-chodz-	4ee\	-chodz-	.
8AA/	.	8gg\	.	8G\	-cie	8ee\	-cie	.
=108	=108	=108	=108	=108	=108	=108	=108	=108
8D\L	.	(8gg\L	.	8G\	z_Ku-	8ee\	z_Ku-	.
8D\J	.	8ff#\J)	.	4F#\	-py	8dd\	-py	.
8r	.	8r	.	.	.	8r	.	.
=109	=109	=109	=109	=109	=109	=109	=109	=109
8AA/	.	4A/	.	4AA/	bo	1.r	.	.
8r	.	.	.	.	.	.	.	.
8r	.	8d/	.	8D/	ia	.	.	.
=110	=110	=110	=110	=110	=110	=110	=110	=110
8AA/	.	4c#/	.	4C#/	pier-	.	.	.
8r	.	.	.	.	.	.	.	.
8r	.	8e/	.	8E\	-wſzy	.	.	.
=111	=111	=111	=111	=111	=111	=111	=111	=111
4AA/	.	4g/	.	4G\	do	.	.	.
8AA/	.	8g/	.	8G\	wszyt-	.	.	.
=112	=112	=112	=112	=112	=112	=112	=112	=112
8D\	.	8g/	.	8G\	-Kie-	.	.	.
4D\	.	4f#/	.	4F#\	-go	.	.	.
=113	=113	=113	=113	=113	=113	=113	=113	=113
8AA/	.	4A/	.	4AA/	we-	1.r	.	.
8r	.	.	.	.	.	.	.	.
8r	.	8d/	.	8D/	-zmę	.	.	.
=114	=114	=114	=114	=114	=114	=114	=114	=114
8AA/	.	4c#/	.	4C#/	Cioł-	.	.	.
8r	.	.	.	.	.	.	.	.
8r	.	8e/	.	8E\	-ka	.	.	.
=115	=115	=115	=115	=115	=115	=115	=115	=115
4AA/	.	4g/	.	4G\	bo-	.	.	.
8AA/	.	8g/	.	8G\	-cia-	.	.	.
=116	=116	=116	=116	=116	=116	=116	=116	=116
8D\	.	8f#/	.	8F#\	-ste-	.	.	.
4D\	.	4d/	.	4D\	-go	.	.	.
=117	=117	=117	=117	=117	=117	=117	=117	=117
*	*	*	*	*rep	*	*	*	*
!	!	!	!	!LO:TX:t=P:problem=powtórzenie taktów 115-116 oznaczone znakiem repetycji	!	!	!	!
4AA/	.	4g/	.	4G\yy	bo-	2.r	.	.
8AA/	.	8g/	.	8G\yy	-cia-	.	.	.
=118	=118	=118	=118	=118	=118	=118	=118	=118
8D\	.	8f#/L	.	8F#\yy	-ste-	.	.	.
4D\	.	8d/J	.	4D\yy	-go	.	.	.
.	.	8r	.	.	.	.	.	.
*	*	*	*	*Xrep	*	*	*	*
=119	=119	=119	=119	=119	=119	=119	=119	=119
4.D\	.	1.r	.	1.r	.	4dd\	a	.
.	.	.	.	.	.	8a\	ia	.
=120	=120	=120	=120	=120	=120	=120	=120	=120
4.D\	.	.	.	.	.	16f#\LL	wez-	.
.	.	.	.	.	.	16g#X\JJ	.	.
.	.	.	.	.	.	4a\	-mę	.
!	!	!	!	!	!	!LO:LB:g=original	!	!
=121	=121	=121	=121	=121	=121	=121	=121	=121
4.D\	.	.	.	.	.	4dd\	brze-	.
.	.	.	.	.	.	8a\	-zia-	.
=122	=122	=122	=122	=122	=122	=122	=122	=122
4.D\	.	.	.	.	.	16f#\LL	-ste-	.
.	.	.	.	.	.	16g#X\JJ	.	.
.	.	.	.	.	.	4a\	-go	.
=123	=123	=123	=123	=123	=123	=123	=123	=123
4.D\	.	1.r	.	1.r	.	4dd\	u	.
.	.	.	.	.	.	8a\	Ba-	.
=124	=124	=124	=124	=124	=124	=124	=124	=124
4.D\	.	.	.	.	.	16f#\LL	-ra-	.
.	.	.	.	.	.	16g#X\JJ	.	.
.	.	.	.	.	.	4a\	-na	.
=125	=125	=125	=125	=125	=125	=125	=125	=125
4.AA/	.	.	.	.	.	4g\	ro-	.
.	.	.	.	.	.	8g\	-ga-	.
=126	=126	=126	=126	=126	=126	=126	=126	=126
4.D\	.	.	.	.	.	8f#\	-te-	.
.	.	.	.	.	.	4d\	-go	.
!	!	!	!	!	!	!LO:LB:g=original	!	!
=127	=127	=127	=127	=127	=127	=127	=127	=127
4.AA/	.	1.r	.	1.r	.	4g\	y	.
.	.	.	.	.	.	8g\	tłu-	.
=128	=128	=128	=128	=128	=128	=128	=128	=128
4.D\	.	.	.	.	.	8f#\	-ste-	.
.	.	.	.	.	.	4d\	-go	.
=129	=129	=129	=129	=129	=129	=129	=129	=129
4.AA/	.	.	.	.	.	4g\	y	.
.	.	.	.	.	.	8g\	pię-	.
=130	=130	=130	=130	=130	=130	=130	=130	=130
4.D\	.	.	.	.	.	8f#\	-Kne-	.
.	.	.	.	.	.	8d\	-go	.
.	.	.	.	.	.	8r	.	.
=131	=131	=131	=131	=131	=131	=131	=131	=131
4.D\	.	8ddd\L	.	1.r	.	1.r	.	.
.	.	16ccc#\L	.	.	.	.	.	.
.	.	16eee\J	.	.	.	.	.	.
.	.	8ddd\J	.	.	.	.	.	.
=132	=132	=132	=132	=132	=132	=132	=132	=132
4.D\	.	8ff#\L	.	.	.	.	.	.
.	.	16ee\L	.	.	.	.	.	.
.	.	16gg\J	.	.	.	.	.	.
.	.	8ff#\J	.	.	.	.	.	.
=133	=133	=133	=133	=133	=133	=133	=133	=133
4.D\	.	8dd\L	.	.	.	.	.	.
.	.	16cc#\L	.	.	.	.	.	.
.	.	16ee\J	.	.	.	.	.	.
.	.	8dd\J	.	.	.	.	.	.
=134	=134	=134	=134	=134	=134	=134	=134	=134
4.D\	.	8ff#\L	.	.	.	.	.	.
.	.	16ee\L	.	.	.	.	.	.
.	.	16gg\J	.	.	.	.	.	.
.	.	8ff#\J	.	.	.	.	.	.
=135	=135	=135	=135	=135	=135	=135	=135	=135
4.D\	.	(16ff#\LL	.	1.r	.	1.r	.	.
.	.	16gg#X\	.	.	.	.	.	.
.	.	16aa\	.	.	.	.	.	.
.	.	16gg#\	.	.	.	.	.	.
.	.	16aa\	.	.	.	.	.	.
.	.	16ff#\JJ)	.	.	.	.	.	.
=136	=136	=136	=136	=136	=136	=136	=136	=136
4.D\	.	(16ff#\LL	.	.	.	.	.	.
.	.	16gg#X\	.	.	.	.	.	.
.	.	16aa\	.	.	.	.	.	.
.	.	16gg#\	.	.	.	.	.	.
.	.	16aa\	.	.	.	.	.	.
.	.	16gg#\JJ)	.	.	.	.	.	.
=137	=137	=137	=137	=137	=137	=137	=137	=137
4.AA/	.	8ggn\L	.	.	.	.	.	.
.	.	(16ff#\L	.	.	.	.	.	.
.	.	16ee\	.	.	.	.	.	.
.	.	16ff#\	.	.	.	.	.	.
.	.	16cc#\JJ)	.	.	.	.	.	.
=138	=138	=138	=138	=138	=138	=138	=138	=138
4.D\	.	4dd\	.	.	.	.	.	.
.	.	8aa\	.	.	.	.	.	.
=139	=139	=139	=139	=139	=139	=139	=139	=139
4.AA/	.	8ggn\L	.	1.r	.	1.r	.	.
.	.	(16ff#\L	.	.	.	.	.	.
.	.	16ee\	.	.	.	.	.	.
.	.	16ff#\	.	.	.	.	.	.
.	.	16cc#\JJ)	.	.	.	.	.	.
=140	=140	=140	=140	=140	=140	=140	=140	=140
8D\L	.	8ff#L 8a 8d/	.	.	.	.	.	.
8D\J	.	8ff#J 8a 8d/	.	.	.	.	.	.
8r	.	8r	.	.	.	.	.	.
=141	=141	=141	=141	=141	=141	=141	=141	=141
4.D\	.	16ff#\LL	.	.	.	.	.	.
.	.	16gg#X\JJ	.	.	.	.	.	.
.	.	8aa\L	.	.	.	.	.	.
.	.	16aa\L	.	.	.	.	.	.
.	.	16ff#\JJ	.	.	.	.	.	.
=142	=142	=142	=142	=142	=142	=142	=142	=142
4.D\	.	16ff#\LL	.	.	.	.	.	.
.	.	16gg#X\JJ	.	.	.	.	.	.
.	.	4aa\	.	.	.	.	.	.
=143	=143	=143	=143	=143	=143	=143	=143	=143
4.D\	.	16ff#\LL	.	1.r	.	1.r	.	.
.	.	16gg#X\JJ	.	.	.	.	.	.
.	.	8aa\L	.	.	.	.	.	.
.	.	16ff#\L	.	.	.	.	.	.
.	.	16dd\JJ	.	.	.	.	.	.
=144	=144	=144	=144	=144	=144	=144	=144	=144
4.D\	.	16ee\LL	.	.	.	.	.	.
.	.	16cc#\JJ	.	.	.	.	.	.
.	.	4dd\	.	.	.	.	.	.
=145	=145	=145	=145	=145	=145	=145	=145	=145
!	!	!	!LO:DY:a	!	!	!	!	!
4.D\	.	16ff#\LL	p	.	.	.	.	.
.	.	16gg#X\JJ	.	.	.	.	.	.
.	.	8aa\L	.	.	.	.	.	.
.	.	16aa\L	.	.	.	.	.	.
.	.	16ff#\JJ	.	.	.	.	.	.
=146	=146	=146	=146	=146	=146	=146	=146	=146
4.D\	.	16ff#\LL	.	.	.	.	.	.
.	.	16gg#X\JJ	.	.	.	.	.	.
.	.	4aa\	.	.	.	.	.	.
=147	=147	=147	=147	=147	=147	=147	=147	=147
4.D\	.	16ff#\LL	.	2.r	.	1.r	.	.
.	.	16gg#X\JJ	.	.	.	.	.	.
.	.	8aa\L	.	.	.	.	.	.
.	.	16ff#\L	.	.	.	.	.	.
.	.	16dd\JJ	.	.	.	.	.	.
=148	=148	=148	=148	=148	=148	=148	=148	=148
4.D\	.	16ee\LL	.	.	.	.	.	.
.	.	16cc#\JJ	.	.	.	.	.	.
.	.	4dd\	.	.	.	.	.	.
=149	=149	=149	=149	=149	=149	=149	=149	=149
4.D\	.	(16ff#\LL	.	16F#\	za-	.	.	.
.	.	16gg#X\	.	16G#X\	-gra	.	.	.
.	.	16aa\	.	16A\LL	Jan-	.	.	.
.	.	16gg#\	.	16G#X\JJ	.	.	.	.
.	.	16aa\	.	16A\LL	-tek	.	.	.
.	.	16ff#\JJ)	.	16F#\JJ	.	.	.	.
=150	=150	=150	=150	=150	=150	=150	=150	=150
4.D\	.	(16ff#\LL	.	16F#\	na	.	.	.
.	.	16gg#X\	.	16G#X\	Cy-	.	.	.
.	.	16aa\	.	16A\LL	-ta-	.	.	.
.	.	16gg#\	.	16G#X\JJ	.	.	.	.
.	.	16aa\	.	16A\LL	-rze	.	.	.
.	.	16ff#\JJ)	.	16F#\JJ	.	.	.	.
=151	=151	=151	=151	=151	=151	=151	=151	=151
4.D\	.	(16ff#\LL	.	16F#\	na	2.r	.	.
.	.	16gg#X\	.	16G#X\	Cy-	.	.	.
.	.	16aa\	.	16A\LL	-ta-	.	.	.
.	.	16gg#\	.	16G#X\JJ	.	.	.	.
.	.	16aa\	.	16A\LL	-rze	.	.	.
!	!	!LO:TX:b:Bi:t=fis	!	!	!	!	!	!
.	.	16ff#\JJ)	.	16F#\JJ	.	.	.	.
=152	=152	=152	=152	=152	=152	=152	=152	=152
4.D\	.	(16ff#\LL	.	16F#\	na	.	.	.
.	.	16gg#X\	.	16G#X\	Cy-	.	.	.
.	.	16aa\	.	16A\LL	-ta-	.	.	.
.	.	16gg#\	.	16G#X\JJ	.	.	.	.
.	.	16aa\	.	16A\LL	-rze	.	.	.
.	.	16ff#\JJ)	.	16F#\JJ	.	.	.	.
=153	=153	=153	=153	=153	=153	=153	=153	=153
8D\	.	2.r	.	1.r	.	4dd\	a-	.
8r	.	.	.	.	.	.	.	.
8r	.	.	.	.	.	8a\	-le	.
=154	=154	=154	=154	=154	=154	=154	=154	=154
8D\	.	.	.	.	.	8f#\	nie	.
8r	.	.	.	.	.	4d\	praw	.
8r	.	.	.	.	.	.	.	.
!	!	!	!	!	!	!LO:LB:g=original	!	!
=155	=155	=155	=155	=155	=155	=155	=155	=155
4AA/	.	4ee\	.	.	.	4g\	na	.
8A\	.	8ee\	.	.	.	8g\	fu-	.
=156	=156	=156	=156	=156	=156	=156	=156	=156
8D\L	.	8dd\L	.	.	.	8f#\	-ia-	.
8D\J	.	8dd\J	.	.	.	4d\	-rze	.
8r	.	8r	.	.	.	.	.	.
=157	=157	=157	=157	=157	=157	=157	=157	=157
8AA/L	.	4ee\	.	2.r	.	4g\	na	.
8AA/	.	.	.	.	.	.	.	.
8AA/J	.	8ee\	.	.	.	8g\	fu-	.
=158	=158	=158	=158	=158	=158	=158	=158	=158
8D\L	.	8dd\L	.	.	.	8f#\	-ja-	.
8D\J	.	8dd\J	.	.	.	8d\	-rze	.
8r	.	8r	.	.	.	8r	.	.
=159	=159	=159	=159	=159	=159	=159	=159	=159
4.AA/	.	1.r	.	4E\	na	2.r	.	.
.	.	.	.	8G\	cy-	.	.	.
=160	=160	=160	=160	=160	=160	=160	=160	=160
8D\L	.	.	.	8F#\	-ta-	.	.	.
8D\J	.	.	.	8D\	-rze	.	.	.
8r	.	.	.	8r	.	.	.	.
=161	=161	=161	=161	=161	=161	=161	=161	=161
4.D\	.	.	.	2.r	.	4dd\	a-	.
.	.	.	.	.	.	8a\	-le	.
=162	=162	=162	=162	=162	=162	=162	=162	=162
4.D\	.	.	.	.	.	8f#\	nie	.
.	.	.	.	.	.	4d\	praw	.
!	!	!	!	!	!	!LO:LB:g=original	!	!
=163	=163	=163	=163	=163	=163	=163	=163	=163
4.AA/	.	1.r	.	4G\	na	4e\	na	.
.	.	.	.	8G\	cy-	8g\	fu-	.
=164	=164	=164	=164	=164	=164	=164	=164	=164
4.D\	.	.	.	8G\	-ta-	8f#\	-ja-	.
.	.	.	.	4F#\	-rze	4d\	-rze	.
=165	=165	=165	=165	=165	=165	=165	=165	=165
4AA/	.	.	.	4G\	na	4e\	na	.
8AA/	.	.	.	8G\	cy-	8g\	fu-	.
=166	=166	=166	=166	=166	=166	=166	=166	=166
8D\L	.	.	.	8G\	-ta-	8f#\	-ja-	.
8D\J	.	.	.	4F#\	-rze	8d\	-rze	.
8r	.	.	.	.	.	8r	.	.
=167	=167	=167	=167	=167	=167	=167	=167	=167
4.D\	.	(16ff#\LL	.	1.r	.	1.r	.	.
.	.	16gg#X\	.	.	.	.	.	.
.	.	16aa\	.	.	.	.	.	.
.	.	16gg#\	.	.	.	.	.	.
.	.	16aa\	.	.	.	.	.	.
.	.	16ff#\JJ)	.	.	.	.	.	.
=168	=168	=168	=168	=168	=168	=168	=168	=168
4.D\	.	16ff#\LL	.	.	.	.	.	.
.	.	16gg#X\	.	.	.	.	.	.
.	.	16aa\	.	.	.	.	.	.
.	.	16gg#\	.	.	.	.	.	.
.	.	16aa\	.	.	.	.	.	.
.	.	16ff#\JJ	.	.	.	.	.	.
=169	=169	=169	=169	=169	=169	=169	=169	=169
8AA/L	.	4gg\	.	.	.	.	.	.
8AA/	.	.	.	.	.	.	.	.
8AA/J	.	8gg\	.	.	.	.	.	.
=170	=170	=170	=170	=170	=170	=170	=170	=170
8D\L	.	8ff#\L	.	.	.	.	.	.
8D\J	.	8dd\J	.	.	.	.	.	.
8r	.	8r	.	.	.	.	.	.
=171	=171	=171	=171	=171	=171	=171	=171	=171
!	!	!	!LO:DY:a	!	!	!	!	!
4.D\	.	4ddd\	f	1.r	.	1.r	.	.
.	.	8aa\	.	.	.	.	.	.
=172	=172	=172	=172	=172	=172	=172	=172	=172
4.D\	.	16ff#\LL	.	.	.	.	.	.
.	.	16cc#\JJ	.	.	.	.	.	.
.	.	4dd\	.	.	.	.	.	.
=173	=173	=173	=173	=173	=173	=173	=173	=173
8AA/L	.	4gg\	.	.	.	.	.	.
8AA/	.	.	.	.	.	.	.	.
8AA/J	.	8gg\	.	.	.	.	.	.
=174	=174	=174	=174	=174	=174	=174	=174	=174
8D\L	.	16ff#\LL	.	.	.	.	.	.
.	.	16cc#\JJ	.	.	.	.	.	.
8D\	.	4dd\	.	.	.	.	.	.
8D\J	.	.	.	.	.	.	.	.
=175	=175	=175	=175	=175	=175	=175	=175	=175
4AA/	.	4a/	.	1.r	.	1.r	.	.
8AA/	.	8gg\	.	.	.	.	.	.
=176	=176	=176	=176	=176	=176	=176	=176	=176
4.D\	.	16ff#\LL	.	.	.	.	.	.
.	.	16gg\JJ	.	.	.	.	.	.
.	.	4aa\	.	.	.	.	.	.
=177	=177	=177	=177	=177	=177	=177	=177	=177
4.D\	.	4ddd\	.	.	.	.	.	.
.	.	8aa\	.	.	.	.	.	.
=178	=178	=178	=178	=178	=178	=178	=178	=178
4.D\	.	16ff#\LL	.	.	.	.	.	.
.	.	16gg\JJ	.	.	.	.	.	.
.	.	4aa\	.	.	.	.	.	.
=179	=179	=179	=179	=179	=179	=179	=179	=179
4.D\	.	4ddd\	.	1.r	.	1.r	.	.
.	.	8aa\	.	.	.	.	.	.
=180	=180	=180	=180	=180	=180	=180	=180	=180
4.D\	.	16ff#\LL	.	.	.	.	.	.
.	.	16cc#\JJ	.	.	.	.	.	.
.	.	4dd\	.	.	.	.	.	.
=181	=181	=181	=181	=181	=181	=181	=181	=181
8D\L	.	8ff#L 8a 8d/	.	.	.	.	.	.
8D\	.	8ff# 8a 8d/	.	.	.	.	.	.
8D\J	.	8ff#J 8a 8d/	.	.	.	.	.	.
=182	=182	=182	=182	=182	=182	=182	=182	=182
8D\	.	8ff# 8a 8d/	.	.	.	.	.	.
8r	.	8r	.	.	.	.	.	.
8r	.	8r	.	.	.	.	.	.
==	==	==	==	==	==	==	==	==
*-	*-	*-	*-	*-	*-	*-	*-	*-
!!!system-decoration: [(s1,s2)][(s3)][(s4)]
!!!RDF**kern: > = above
!!!RDF**kern: < = below
!!!RDF**kern: | = vertical stroke
!!!RDF**kern: N = linked
!!!RDF**kern: i = editorial accidental
!!!RDF**kern: l = terminal long
!!!ENC: Andrzej Kubiczek
!!!END: 2020-11-29
!!!EED: Wojciech Jakubiak-Danek
!!!EEV: 2022-01-02
